icons/svg/transport/aerialway_pylon.svg

<?xml version="1.0" encoding="UTF-8" standalone="no"?>
<!-- Created with Inkscape (http://www.inkscape.org/) -->

<svg
   xmlns:dc="http://purl.org/dc/elements/1.1/"
   xmlns:cc="http://creativecommons.org/ns#"
   xmlns:rdf="http://www.w3.org/1999/02/22-rdf-syntax-ns#"
   xmlns:svg="http://www.w3.org/2000/svg"
   xmlns="http://www.w3.org/2000/svg"
   xmlns:sodipodi="http://sodipodi.sourceforge.net/DTD/sodipodi-0.dtd"
   xmlns:inkscape="http://www.inkscape.org/namespaces/inkscape"
   version="1.0"
   width="580"
   height="580"
   id="svg2"
   sodipodi:version="0.32"
   inkscape:version="0.91 r"
   sodipodi:docname="aerialway_pylon.svg"
   inkscape:output_extension="org.inkscape.output.svg.inkscape">
  <metadata
     id="metadata10">
    <rdf:RDF>
      <cc:Work
         rdf:about="">
        <dc:format>image/svg+xml</dc:format>
        <dc:type
           rdf:resource="http://purl.org/dc/dcmitype/StillImage" />
        <cc:license
           rdf:resource="http://web.resource.org/cc/PublicDomain" />
        <dc:language>en</dc:language>
        <dc:title></dc:title>
      </cc:Work>
    </rdf:RDF>
  </metadata>
  <sodipodi:namedview
     inkscape:window-height="1004"
     inkscape:window-width="1920"
     inkscape:pageshadow="2"
     inkscape:pageopacity="0.0"
     guidetolerance="10.0"
     gridtolerance="10.0"
     objecttolerance="10.0"
     borderopacity="1.0"
     bordercolor="#666666"
     pagecolor="#ffffff"
     id="base"
     showgrid="false"
     inkscape:zoom="0.35355339"
     inkscape:cx="701.54077"
     inkscape:cy="303.73581"
     inkscape:window-x="1680"
     inkscape:window-y="0"
     inkscape:current-layer="svg2"
     inkscape:window-maximized="1">
    <inkscape:grid
       type="xygrid"
       id="grid3779" />
  </sodipodi:namedview>
  <defs
     id="defs4">
    <inkscape:perspective
       sodipodi:type="inkscape:persp3d"
       inkscape:vp_x="0 : 290 : 1"
       inkscape:vp_y="0 : 1000 : 0"
       inkscape:vp_z="580 : 290 : 1"
       inkscape:persp3d-origin="290 : 193.33333 : 1"
       id="perspective12" />
    <style
       type="text/css"
       id="style6">
   
    .fil0 {fill:#EF7900}
   
  </style>
    <inkscape:perspective
       id="perspective6807"
       inkscape:persp3d-origin="29.116032 : 19.410688 : 1"
       inkscape:vp_z="58.232063 : 29.116032 : 1"
       inkscape:vp_y="0 : 1000 : 0"
       inkscape:vp_x="0 : 29.116032 : 1"
       sodipodi:type="inkscape:persp3d" />
    <inkscape:perspective
       id="perspective6954"
       inkscape:persp3d-origin="290 : 193.33333 : 1"
       inkscape:vp_z="580 : 290 : 1"
       inkscape:vp_y="0 : 1000 : 0"
       inkscape:vp_x="0 : 290 : 1"
       sodipodi:type="inkscape:persp3d" />
    <marker
       viewBox="0 0 10 10"
       refY="5"
       refX="10"
       orient="auto"
       markerWidth="4"
       markerUnits="strokeWidth"
       markerHeight="3"
       id="ArrowStart">
      <path
         id="path2295"
         d="M 10 0 L 0 5 L 10 10 z" />
    </marker>
    <marker
       viewBox="0 0 10 10"
       refY="5"
       refX="0"
       orient="auto"
       markerWidth="4"
       markerUnits="strokeWidth"
       markerHeight="3"
       id="ArrowEnd">
      <path
         id="path2292"
         d="M 0 0 L 10 5 L 0 10 z" />
    </marker>
    <inkscape:perspective
       id="perspective7597"
       inkscape:persp3d-origin="178.5405 : 158.483 : 1"
       inkscape:vp_z="357.08099 : 237.7245 : 1"
       inkscape:vp_y="0 : 1000 : 0"
       inkscape:vp_x="0 : 237.7245 : 1"
       sodipodi:type="inkscape:persp3d" />
  </defs>
  <g
     id="g1327">
    <path
       d="M 66.275,1.768 C 24.94,1.768 1.704,23.139 1.704,66.804 L 1.704,516.927 C 1.704,557.771 22.598,579.156 63.896,579.156 L 515.92,579.156 C 557.227,579.156 578.149,558.84 578.149,516.927 L 578.149,66.804 C 578.149,24.203 557.227,1.768 514.627,1.768 C 514.624,1.768 66.133,1.625 66.275,1.768 z"
       style="fill:#111111;stroke:#eeeeee;stroke-width:3.40799999"
       id="path1329" />
  </g>
  <g
     id="g2319"
     transform="translate(879.29125,36.805119)">
    <path
       id="path2323"
       style="fill:#ffffff;stroke:none"
       d="" />
  </g>
  <g
     id="g2325"
     transform="translate(879.29125,36.805119)">
    <path
       id="path2329"
       style="fill:#ffffff;stroke:none"
       d="" />
  </g>
  <path
     id="path3758"
     d="m 323.49205,246.14087 -70.50394,81.91286"
     style="fill:none;stroke:#ffffff;stroke-width:12.53017044;stroke-linecap:round;stroke-linejoin:miter;stroke-miterlimit:4;stroke-dasharray:none;stroke-opacity:1"
     inkscape:connector-curvature="0"
     sodipodi:nodetypes="cc" />
  <path
     style="fill:none;stroke:#ffffff;stroke-width:12.53017044;stroke-linecap:round;stroke-linejoin:miter;stroke-miterlimit:4;stroke-dasharray:none;stroke-opacity:1"
     d="m 252.52058,254.14087 81.00394,81.16286"
     id="path3768"
     inkscape:connector-curvature="0"
     sodipodi:nodetypes="cc" />
  <path
     style="fill:none;stroke:#ffffff;stroke-width:15.42174816;stroke-linecap:round;stroke-linejoin:miter;stroke-miterlimit:4;stroke-dasharray:none;stroke-opacity:1"
     d="m 246.51218,327.87329 101.2311,101.76189"
     id="path3770"
     inkscape:connector-curvature="0"
     sodipodi:nodetypes="cc" />
  <path
     id="path3772"
     d="M 332.65669,324.37329 226.92559,424.63518"
     style="fill:none;stroke:#ffffff;stroke-width:15.42174816;stroke-linecap:round;stroke-linejoin:miter;stroke-miterlimit:4;stroke-dasharray:none;stroke-opacity:1"
     inkscape:connector-curvature="0"
     sodipodi:nodetypes="cc" />
  <path
     style="fill:none;stroke:#ffffff;stroke-width:25;stroke-linecap:round;stroke-linejoin:round;stroke-miterlimit:4;stroke-dasharray:none;stroke-opacity:1"
     d="M 267.76885,131.13259 214.36149,521.10913"
     id="path6338"
     inkscape:connector-curvature="0"
     sodipodi:nodetypes="cc" />
  <path
     inkscape:connector-curvature="0"
     id="path6346"
     d="m 184.13888,121.70293 201.85584,0.62741"
     style="fill:none;stroke:#ffffff;stroke-width:25;stroke-linecap:round;stroke-linejoin:round;stroke-miterlimit:4;stroke-dasharray:none;stroke-opacity:1"
     sodipodi:nodetypes="cc" />
  <path
     style="fill:none;stroke:#ffffff;stroke-width:25;stroke-linecap:round;stroke-linejoin:round;stroke-miterlimit:4;stroke-dasharray:none;stroke-opacity:1"
     d="m 306.99248,130.07193 53.05381,391.0372"
     id="path6338-3"
     inkscape:connector-curvature="0"
     sodipodi:nodetypes="cc" />
  <path
     inkscape:connector-curvature="0"
     style="opacity:0.5;fill:none;stroke:#ffffff;stroke-width:17.20499992;stroke-linecap:round;stroke-linejoin:miter;stroke-miterlimit:4;stroke-dasharray:none;stroke-opacity:1"
     d="M 156.36496,148.22731 C 91.262312,174.19966 29.181241,173.67274 29.181241,173.67274"
     id="path6358-3"
     sodipodi:nodetypes="cc" />
  <path
     id="path3758-8"
     d="m 313.407,188.82919 -53.53122,62.40318"
     style="fill:none;stroke:#ffffff;stroke-width:10.23;stroke-linecap:round;stroke-linejoin:miter;stroke-miterlimit:4;stroke-dasharray:none;stroke-opacity:1"
     inkscape:connector-curvature="0"
     sodipodi:nodetypes="cc" />
  <path
     style="fill:none;stroke:#ffffff;stroke-width:10.23;stroke-linecap:round;stroke-linejoin:miter;stroke-miterlimit:4;stroke-dasharray:none;stroke-opacity:1"
     d="m 260.2708,192.42378 60.75351,65.62954"
     id="path3768-6"
     inkscape:connector-curvature="0"
     sodipodi:nodetypes="cc" />
  <path
     id="path3758-8-1"
     d="m 305.1247,149.57762 -38.2584,44.79663"
     style="fill:none;stroke:#ffffff;stroke-width:9.13000011;stroke-linecap:round;stroke-linejoin:miter;stroke-miterlimit:4;stroke-dasharray:none;stroke-opacity:1"
     inkscape:connector-curvature="0"
     sodipodi:nodetypes="cc" />
  <path
     style="fill:none;stroke:#ffffff;stroke-width:9.13000011;stroke-linecap:round;stroke-linejoin:miter;stroke-miterlimit:4;stroke-dasharray:none;stroke-opacity:1"
     d="m 270.0024,151.97802 40.15724,45.57613"
     id="path3768-6-0"
     inkscape:connector-curvature="0"
     sodipodi:nodetypes="cc" />
  <path
     style="fill:none;stroke:#ffffff;stroke-width:15.42174816;stroke-linecap:round;stroke-linejoin:miter;stroke-miterlimit:4;stroke-dasharray:none;stroke-opacity:1"
     d="m 234.84491,420.11593 125.97985,95.39793"
     id="path3770-5"
     inkscape:connector-curvature="0"
     sodipodi:nodetypes="cc" />
  <path
     id="path3772-0"
     d="M 342.20263,417.67659 216.31899,514.40295"
     style="fill:none;stroke:#ffffff;stroke-width:15.42174816;stroke-linecap:round;stroke-linejoin:miter;stroke-miterlimit:4;stroke-dasharray:none;stroke-opacity:1"
     inkscape:connector-curvature="0"
     sodipodi:nodetypes="cc" />
  <circle
     style="color:#000000;clip-rule:nonzero;display:inline;overflow:visible;visibility:visible;opacity:1;isolation:auto;mix-blend-mode:normal;color-interpolation:sRGB;color-interpolation-filters:linearRGB;solid-color:#000000;solid-opacity:1;fill:#ffffff;fill-opacity:1;fill-rule:nonzero;stroke:none;stroke-width:9.13000011;stroke-linecap:round;stroke-linejoin:round;stroke-miterlimit:4;stroke-dasharray:none;stroke-dashoffset:0;stroke-opacity:1;marker:none;color-rendering:auto;image-rendering:auto;shape-rendering:auto;text-rendering:auto;enable-background:accumulate"
     id="path4311"
     cx="189.64949"
     cy="158.75"
     r="14.75" />
  <circle
     style="color:#000000;clip-rule:nonzero;display:inline;overflow:visible;visibility:visible;opacity:1;isolation:auto;mix-blend-mode:normal;color-interpolation:sRGB;color-interpolation-filters:linearRGB;solid-color:#000000;solid-opacity:1;fill:#ffffff;fill-opacity:1;fill-rule:nonzero;stroke:none;stroke-width:9.13000011;stroke-linecap:round;stroke-linejoin:round;stroke-miterlimit:4;stroke-dasharray:none;stroke-dashoffset:0;stroke-opacity:1;marker:none;color-rendering:auto;image-rendering:auto;shape-rendering:auto;text-rendering:auto;enable-background:accumulate"
     id="path4311-6"
     cx="229.14949"
     cy="158.75"
     r="14.75" />
  <circle
     style="color:#000000;clip-rule:nonzero;display:inline;overflow:visible;visibility:visible;opacity:1;isolation:auto;mix-blend-mode:normal;color-interpolation:sRGB;color-interpolation-filters:linearRGB;solid-color:#000000;solid-opacity:1;fill:#ffffff;fill-opacity:1;fill-rule:nonzero;stroke:none;stroke-width:9.13000011;stroke-linecap:round;stroke-linejoin:round;stroke-miterlimit:4;stroke-dasharray:none;stroke-dashoffset:0;stroke-opacity:1;marker:none;color-rendering:auto;image-rendering:auto;shape-rendering:auto;text-rendering:auto;enable-background:accumulate"
     id="path4311-61"
     cx="345.47183"
     cy="158.75"
     r="14.75" />
  <circle
     style="color:#000000;clip-rule:nonzero;display:inline;overflow:visible;visibility:visible;opacity:1;isolation:auto;mix-blend-mode:normal;color-interpolation:sRGB;color-interpolation-filters:linearRGB;solid-color:#000000;solid-opacity:1;fill:#ffffff;fill-opacity:1;fill-rule:nonzero;stroke:none;stroke-width:9.13000011;stroke-linecap:round;stroke-linejoin:round;stroke-miterlimit:4;stroke-dasharray:none;stroke-dashoffset:0;stroke-opacity:1;marker:none;color-rendering:auto;image-rendering:auto;shape-rendering:auto;text-rendering:auto;enable-background:accumulate"
     id="path4311-6-0"
     cx="384.97183"
     cy="158.75"
     r="14.75" />
  <path
     inkscape:connector-curvature="0"
     style="opacity:0.5;fill:none;stroke:#ffffff;stroke-width:17.20499992;stroke-linecap:round;stroke-linejoin:miter;stroke-miterlimit:4;stroke-dasharray:none;stroke-opacity:1"
     d="m 418.78842,147.5202 c 65.10265,25.97235 131.42636,25.44543 131.42636,25.44543"
     id="path6358-3-0"
     sodipodi:nodetypes="cc" />
</svg>

<svg width="580" height="580" viewBox="0 0 580 580" fill="none" xmlns="http://www.w3.org/2000/svg">
<g clip-path="url(#clip0)">
<path d="M66.2751 1.76766C24.9401 1.76766 1.7041 23.1387 1.7041 66.8037V516.927C1.7041 557.771 22.5981 579.156 63.8961 579.156H515.92C557.227 579.156 578.149 558.84 578.149 516.927V66.8037C578.149 24.2027 557.227 1.76766 514.627 1.76766C514.624 1.76766 66.1331 1.62466 66.2751 1.76766Z" fill="#111111" stroke="#EEEEEE" stroke-width="3.408"/>
<path d="M323.492 246.141L252.988 328.053" stroke="white" stroke-width="12.5302" stroke-linecap="round"/>
<path d="M252.521 254.141L333.524 335.303" stroke="white" stroke-width="12.5302" stroke-linecap="round"/>
<path d="M246.512 327.873L347.743 429.635" stroke="white" stroke-width="15.4217" stroke-linecap="round"/>
<path d="M332.657 324.373L226.926 424.635" stroke="white" stroke-width="15.4217" stroke-linecap="round"/>
<path d="M267.769 131.133L214.361 521.109" stroke="white" stroke-width="25" stroke-linecap="round" stroke-linejoin="round"/>
<path d="M184.139 121.703L385.995 122.331" stroke="white" stroke-width="25" stroke-linecap="round" stroke-linejoin="round"/>
<path d="M306.992 130.072L360.046 521.109" stroke="white" stroke-width="25" stroke-linecap="round" stroke-linejoin="round"/>
<path opacity="0.5" d="M156.365 148.228C91.2627 174.2 29.1816 173.673 29.1816 173.673" stroke="white" stroke-width="17.205" stroke-linecap="round"/>
<path d="M313.407 188.829L259.876 251.232" stroke="white" stroke-width="10.23" stroke-linecap="round"/>
<path d="M260.271 192.424L321.024 258.053" stroke="white" stroke-width="10.23" stroke-linecap="round"/>
<path d="M305.125 149.577L266.866 194.374" stroke="white" stroke-width="9.13" stroke-linecap="round"/>
<path d="M270.002 151.979L310.159 197.555" stroke="white" stroke-width="9.13" stroke-linecap="round"/>
<path d="M234.845 420.116L360.825 515.514" stroke="white" stroke-width="15.4217" stroke-linecap="round"/>
<path d="M342.203 417.677L216.319 514.403" stroke="white" stroke-width="15.4217" stroke-linecap="round"/>
<path d="M189.649 173.5C197.796 173.5 204.399 166.896 204.399 158.75C204.399 150.604 197.796 144 189.649 144C181.503 144 174.899 150.604 174.899 158.75C174.899 166.896 181.503 173.5 189.649 173.5Z" fill="white"/>
<path d="M229.149 173.5C237.296 173.5 243.899 166.896 243.899 158.75C243.899 150.604 237.296 144 229.149 144C221.003 144 214.399 150.604 214.399 158.75C214.399 166.896 221.003 173.5 229.149 173.5Z" fill="white"/>
<path d="M345.472 173.5C353.618 173.5 360.222 166.896 360.222 158.75C360.222 150.604 353.618 144 345.472 144C337.325 144 330.722 150.604 330.722 158.75C330.722 166.896 337.325 173.5 345.472 173.5Z" fill="white"/>
<path d="M384.972 173.5C393.118 173.5 399.722 166.896 399.722 158.75C399.722 150.604 393.118 144 384.972 144C376.825 144 370.222 150.604 370.222 158.75C370.222 166.896 376.825 173.5 384.972 173.5Z" fill="white"/>
<path opacity="0.5" d="M418.788 147.521C483.891 173.493 550.214 172.966 550.214 172.966" stroke="white" stroke-width="17.205" stroke-linecap="round"/>
</g>
<defs>
<clipPath id="clip0">
<path d="M0 0H580V580H0V0Z" fill="white"/>
</clipPath>
</defs>
</svg>
